img/service/cloud.svg

<svg height="55" viewBox="0 0 60 55" width="60" xmlns="http://www.w3.org/2000/svg"><g fill="none" fill-rule="evenodd"><path d="m29 34h16v7h-16z" fill="#5fb50b"/><g><g fill="#5fb50b"><path d="m37 48h2v2h-2z"/><path d="m41 48h2v2h-2z"/><path d="m15 46h15v7h-15z"/><path d="m17 36.126125h2v2h-2z"/><path d="m21 36.126125h2v2h-2z"/></g><path d="m47 12.126125c-.578625.00025-1.1565.039-1.73.116-2.69475-8.98975-12.167-14.092875-21.15675-11.398125-6.85525 2.054875-11.68825 8.184625-12.08725 15.330125-.341-.032-.684-.048-1.026-.048-6.075125 0-11 4.924875-11 11s4.924875 11 11 11h2v3c0 .55225.44775 1 1 1h2v2h-2c-.55225 0-1 .44775-1 1v8c0 .55225.44775 1 1 1h32c.55225 0 1-.44775 1-1v-8c0-.55225-.44775-1-1-1h-2v-2h2c.55225 0 1-.44775 1-1v-3c7.17975 0 13-5.82025 13-13s-5.82025-13-13-13zm-2 28h-30v-6h30zm0 6v6h-30v-6zm-27-2v-2h24v2zm31.249125-8.233c-.73975.15475-1.493375.23275-2.249125.233v-3c0-.55225-.44775-1-1-1h-10v-9h9.184c.55225 1.562125 2.266375 2.38075 3.828375 1.828375 1.562125-.55225 2.38075-2.266375 1.828375-3.828375-.55225-1.562125-2.266375-2.38075-3.828375-1.828375-.854375.302-1.526375.974125-1.828375 1.828375h-10.184c-.55225 0-1 .44775-1 1v10h-5v-19h4.184c.55225 1.562125 2.266375 2.38075 3.828375 1.828375 1.562125-.55225 2.38075-2.266375 1.828375-3.828375-.55225-1.562125-2.266375-2.38075-3.828375-1.828375-.854375.302-1.526375.974125-1.828375 1.828375h-5.184c-.55225 0-1 .44775-1 1v20h-5v-7c0-.55225-.44775-1-1-1h-5.184c-.55225-1.562125-2.266375-2.38075-3.828375-1.828375s-2.38075 2.266375-1.828375 3.828375 2.266375 2.38075 3.828375 1.828375c.854375-.302 1.526375-.974125 1.828375-1.828375h4.184v6h-6c-.55225 0-1 .44775-1 1v3h-2c-4.970625 0-9-4.0295-9-9 0-4.970625 4.029375-9 9-9 .608625.0005 1.215625.06175 1.812.183.2965.058.603375-.019375.837-.211.23275-.19325.3655-.4815.361-.784 0-.02-.009-.168-.01-.188-.0055-8.279875 6.702125-14.9965 14.982-15.002 6.93425-.004625 12.96675 4.74675 14.587 11.489.126.525625.64675.856 1.176.746 5.9465-1.24375 11.77525 2.5685 13.019 8.515s-2.5685 11.77525-8.514875 13.019zm-2.249125-13.767c0-.55225.44775-1 1-1s1 .44775 1 1-.44775 1-1 1-1-.44775-1-1zm-12-10c0-.55225.44775-1 1-1s1 .44775 1 1-.44775 1-1 1-1-.44775-1-1zm-21 13c0 .55225-.44775 1-1 1s-1-.44775-1-1 .44775-1 1-1 1 .447625 1 1z" fill="#9b9b9b" fill-rule="nonzero"/></g></g></svg>

<?xml version="1.0" encoding="UTF-8"?>
<svg width="60px" height="55px" viewBox="0 0 60 55" version="1.1" xmlns="http://www.w3.org/2000/svg" xmlns:xlink="http://www.w3.org/1999/xlink">
    <!-- Generator: Sketch 52.1 (67048) - http://www.bohemiancoding.com/sketch -->
    <title>Group 6</title>
    <desc>Created with Sketch.</desc>
    <g id="Page-1" stroke="none" stroke-width="1" fill="none" fill-rule="evenodd">
        <g id="Hamon_Home" transform="translate(-730.000000, -994.000000)">
            <g id="Group-6" transform="translate(730.000000, 994.000000)">
                <rect id="Rectangle" fill="#5FB50B" x="29" y="34" width="16" height="7"></rect>
                <g id="Group-7">
                    <rect id="Rectangle" fill="#5FB50B" x="37" y="48" width="2" height="2"></rect>
                    <rect id="Rectangle" fill="#5FB50B" x="41" y="48" width="2" height="2"></rect>
                    <rect id="Rectangle" fill="#5FB50B" x="15" y="46" width="15" height="7"></rect>
                    <rect id="Rectangle" fill="#5FB50B" x="17" y="36.126125" width="2" height="2"></rect>
                    <rect id="Rectangle" fill="#5FB50B" x="21" y="36.126125" width="2" height="2"></rect>
                    <path d="M47,12.126125 C46.421375,12.126375 45.8435,12.165125 45.27,12.242125 C42.57525,3.252375 33.103,-1.85075 24.11325,0.844 C17.258,2.898875 12.425,9.028625 12.026,16.174125 C11.685,16.142125 11.342,16.126125 11,16.126125 C4.924875,16.126125 0,21.051 0,27.126125 C0,33.20125 4.924875,38.126125 11,38.126125 L13,38.126125 L13,41.126125 C13,41.678375 13.44775,42.126125 14,42.126125 L16,42.126125 L16,44.126125 L14,44.126125 C13.44775,44.126125 13,44.573875 13,45.126125 L13,53.126125 C13,53.678375 13.44775,54.126125 14,54.126125 L46,54.126125 C46.55225,54.126125 47,53.678375 47,53.126125 L47,45.126125 C47,44.573875 46.55225,44.126125 46,44.126125 L44,44.126125 L44,42.126125 L46,42.126125 C46.55225,42.126125 47,41.678375 47,41.126125 L47,38.126125 C54.17975,38.126125 60,32.305875 60,25.126125 C60,17.946375 54.17975,12.126125 47,12.126125 Z M45,40.126125 L15,40.126125 L15,34.126125 L45,34.126125 L45,40.126125 Z M45,46.126125 L45,52.126125 L15,52.126125 L15,46.126125 L45,46.126125 Z M18,44.126125 L18,42.126125 L42,42.126125 L42,44.126125 L18,44.126125 Z M49.249125,35.893125 C48.509375,36.047875 47.75575,36.125875 47,36.126125 L47,33.126125 C47,32.573875 46.55225,32.126125 46,32.126125 L36,32.126125 L36,23.126125 L45.184,23.126125 C45.73625,24.68825 47.450375,25.506875 49.012375,24.9545 C50.5745,24.40225 51.393125,22.688125 50.84075,21.126125 C50.2885,19.564 48.574375,18.745375 47.012375,19.29775 C46.158,19.59975 45.486,20.271875 45.184,21.126125 L35,21.126125 C34.44775,21.126125 34,21.573875 34,22.126125 L34,32.126125 L29,32.126125 L29,13.126125 L33.184,13.126125 C33.73625,14.68825 35.450375,15.506875 37.012375,14.9545 C38.5745,14.40225 39.393125,12.688125 38.84075,11.126125 C38.2885,9.564 36.574375,8.745375 35.012375,9.29775 C34.158,9.59975 33.486,10.271875 33.184,11.126125 L28,11.126125 C27.44775,11.126125 27,11.573875 27,12.126125 L27,32.126125 L22,32.126125 L22,25.126125 C22,24.573875 21.55225,24.126125 21,24.126125 L15.816,24.126125 C15.26375,22.564 13.549625,21.745375 11.987625,22.29775 C10.425625,22.850125 9.606875,24.564125 10.15925,26.126125 C10.711625,27.688125 12.425625,28.506875 13.987625,27.9545 C14.842,27.6525 15.514,26.980375 15.816,26.126125 L20,26.126125 L20,32.126125 L14,32.126125 C13.44775,32.126125 13,32.573875 13,33.126125 L13,36.126125 L11,36.126125 C6.029375,36.126125 2,32.096625 2,27.126125 C2,22.1555 6.029375,18.126125 11,18.126125 C11.608625,18.126625 12.215625,18.187875 12.812,18.309125 C13.1085,18.367125 13.415375,18.28975 13.649,18.098125 C13.88175,17.904875 14.0145,17.616625 14.01,17.314125 C14.01,17.294125 14.001,17.146125 14,17.126125 C13.9945,8.84625 20.702125,2.129625 28.982,2.124125 C35.91625,2.1195 41.94875,6.870875 43.569,13.613125 C43.695,14.13875 44.21575,14.469125 44.745,14.359125 C50.6915,13.115375 56.52025,16.927625 57.764,22.874125 C59.00775,28.820625 55.1955,34.649375 49.249125,35.893125 Z M47,22.126125 C47,21.573875 47.44775,21.126125 48,21.126125 C48.55225,21.126125 49,21.573875 49,22.126125 C49,22.678375 48.55225,23.126125 48,23.126125 C47.44775,23.126125 47,22.678375 47,22.126125 Z M35,12.126125 C35,11.573875 35.44775,11.126125 36,11.126125 C36.55225,11.126125 37,11.573875 37,12.126125 C37,12.678375 36.55225,13.126125 36,13.126125 C35.44775,13.126125 35,12.678375 35,12.126125 Z M14,25.126125 C14,25.678375 13.55225,26.126125 13,26.126125 C12.44775,26.126125 12,25.678375 12,25.126125 C12,24.573875 12.44775,24.126125 13,24.126125 C13.55225,24.126125 14,24.57375 14,25.126125 Z" id="Shape" fill="#9B9B9B" fill-rule="nonzero"></path>
                </g>
            </g>
        </g>
    </g>
</svg>
